X:1
T:Title
%%score { ( 1 3 ) | ( 2 4 ) }
L:1/8
Q:1/4=112
M:3/4
K:C
V:1 treble nm="Grand Piano"
V:3 treble 
V:2 bass 
V:4 bass 
V:1
 [EG]6 | [EG]4 z2 | [Ec]6 | [Ec]4 z2 | [Ge]6 | d6 | c2 c2 [FB]2 | [Ec]4 z2 | cB dc BA | %9
w: W.~H.~Doane|||||||||
 [EG]2 z2 z2 | [DF]E GF [G,CE][G,B,D] | [G,CE]2 [CEG]2 z2 | [Ec]3 [FB] [Gc]d | e4 d2 | c4 [DB]2 | %15
w: ||||||
 [Ec]4 z2 | c6 | .[Ec]2 z2 z2 |] %18
w: |||
V:2
 [C,C]6 | [C,C]4 z2 | [C,G,]6 | [C,G,]4 z2 | [C,C]6 | [F,A,F]6 | [G,E]2 [G,E]2 [G,,G,]2 | %7
 [C,G,]4 z2 | A^G BA =GF | C,C, C,2 C,2 | z ^C ED G,,G,, | C,2 C,2 z2 | %12
 [C,G,]3 [D,G,] [E,G,][K:treble][G,B,G] | [CG]4[K:bass] [F,A,F]2 | [G,E]4 [G,,G,]2 | [C,G,]4 z2 | %16
 [F,F]6 | .[C,G,]2 z2 z2 |] %18
V:3
 x6 | x6 | x6 | x6 | x6 | x6 | x6 | x6 | x6 | CC [G,CE]2 [G,EG]2 | x6 | x6 | x6 | x6 | x6 | x6 | %16
 z2 z2 ^G,2 | x6 |] %18
V:4
 x6 | x6 | x6 | x6 | x6 | x6 | x6 | x6 | x6 | x6 | G,4 z2 | x6 | x5[K:treble] x | x4[K:bass] x2 | %14
 x6 | x6 | A,4 z2 | x6 |] %18

